X:275
T: Cordal Reel
S: "Ceol Rince na hEireann" 1/169
Z: B.Black
L: 1/8
M: 4/4
R: reel
K: Dmix
(3ABc|dcAG F2 DE|FAGE F2 ED|cAAG F2 EF|Ddd^c defe|
dcAG F2 DE|FAGE FEED|cBcd cAGB|Add^c d2||
de|fede fage|fedf a2 ge|fede fefg|age^c d2 de|
fede fage|fedf a2 fg|afge (3fgf (3efe|dcAB c2||
